packages/foundations/assets/icons/functional/images/audio & video/volume_up_32.svg

<svg width="32" height="32" viewBox="0 0 32 32" fill="none" xmlns="http://www.w3.org/2000/svg">
<g clip-path="url(#clip0_184_434)">
<path fill-rule="evenodd" clip-rule="evenodd" d="M15 6C15.5 6 16 6.406 16 7V25C16 25.594 15.5 26 15 26C14.7722 26.0039 14.5505 25.9262 14.375 25.781L8.62498 21H4.99998C3.40598 21 1.99998 19.751 1.99998 18.187V14C1.99998 13.2043 2.31606 12.4413 2.87866 11.8787C3.44127 11.3161 4.20434 11 4.99998 11H8.62498L14.375 6.219C14.5505 6.07378 14.7722 5.99611 15 6ZM14 9.125L9.62498 12.781C9.44573 12.9195 9.22649 12.9963 8.99998 13H4.99998C4.43698 13 3.99998 13.438 3.99998 14V18C3.99998 18.563 4.43798 19 4.99998 19H8.99998C9.21898 19 9.47198 19.09 9.62498 19.219L14 22.875V9.125ZM20.406 22.875C20.563 22.875 20.75 22.812 20.906 22.719C23.47 21.25 25 18.906 25 16C25 13.094 23.469 10.75 20.906 9.281C20.7554 9.18711 20.5832 9.1334 20.406 9.125C19.875 9.125 19.406 9.594 19.406 10.125C19.406 10.5 19.594 10.813 19.906 11C21.906 12.125 23 13.875 23 16C23 18.125 21.906 19.875 19.906 21C19.7163 21.1116 19.5683 21.2822 19.4848 21.4858C19.4012 21.6895 19.3867 21.9149 19.4434 22.1275C19.5001 22.3402 19.6249 22.5284 19.7988 22.6634C19.9726 22.7984 20.1859 22.8727 20.406 22.875ZM23.22 27C23.3846 27.0029 23.5467 26.9596 23.688 26.875C25.6078 25.7825 27.2036 24.2003 28.3124 22.2898C29.4213 20.3793 30.0036 18.2089 30 16C30 11.437 27.562 7.344 23.687 5.125C23.546 5.0406 23.3843 4.9973 23.22 5C22.657 5 22.22 5.438 22.22 6C22.22 6.344 22.376 6.688 22.72 6.875C25.969 8.719 28 12.188 28 16C28 19.813 25.969 23.281 22.719 25.125C22.375 25.313 22.219 25.656 22.219 26C22.219 26.531 22.657 27 23.22 27Z" fill="#1A1C1F"/>
</g>
<defs>
<clipPath id="clip0_184_434">
<rect width="32" height="32" fill="white"/>
</clipPath>
</defs>
</svg>

<svg xmlns="http://www.w3.org/2000/svg" width="32" height="32" fill="none"><g clip-path="url(#a)"><path fill="#1A1C1F" fill-rule="evenodd" d="M15 6c.5 0 1 .406 1 1v18c0 .594-.5 1-1 1a.96.96 0 0 1-.625-.219L8.625 21H5c-1.594 0-3-1.249-3-2.813V14a3 3 0 0 1 3-3h3.625l5.75-4.781A.96.96 0 0 1 15 6m-1 3.125-4.375 3.656A1.05 1.05 0 0 1 9 13H5c-.563 0-1 .438-1 1v4c0 .563.438 1 1 1h4c.219 0 .472.09.625.219L14 22.875zm6.406 13.75c.157 0 .344-.063.5-.156C23.47 21.25 25 18.906 25 16s-1.531-5.25-4.094-6.719a1.04 1.04 0 0 0-.5-.156c-.531 0-1 .469-1 1 0 .375.188.688.5.875 2 1.125 3.094 2.875 3.094 5s-1.094 3.875-3.094 5a1.007 1.007 0 0 0 .5 1.875M23.22 27a.9.9 0 0 0 .468-.125A12.49 12.49 0 0 0 30 16c0-4.563-2.438-8.656-6.313-10.875A.9.9 0 0 0 23.22 5c-.563 0-1 .438-1 1 0 .344.156.688.5.875C25.969 8.719 28 12.188 28 16s-2.031 7.281-5.281 9.125c-.344.188-.5.531-.5.875 0 .531.438 1 1.001 1" clip-rule="evenodd"/></g><defs><clipPath id="a"><path fill="#fff" d="M0 0h32v32H0z"/></clipPath></defs></svg>
